X:869
T:If You're Irish #1
C:Joe Buchanan's Scottish Tome - Page 431.1
I:431 1
R:Two-step
Z:Carl Allison
L:1/8
M:6/8
K:G
"D7"d2 c | "G"B3 D3- | "G"D2 D DED | "A7"^C6 | "A7"A3 A2 B |
"D7"c3 d3 | "D7"B3 A3 | "G"G6- | "G7"G3 (A2 B) |
"C"c6 | "C"E6 | "G"DDD (D2 G) | "E7"(B3- B2) B |
"A7"AAA A2 A | "A7"(A2 B) A2 G | "D7"F2 D F2 A | "D7"d3 (d2 c) |
"G"B3 D3- | "G"D2 D DED | "A7"^C6 | "A7"A3 A2 B |
"C"c3d3 | "C"B3 "C7"^A3 | "B7"B6- | "B7"B3 "D7"(B2 c) |
"G"d2 d "E7"dcB | "Am"c2 B "D7"ABc | "G"d2 d "E7"dcB | "Am"c2 B "D7"ABc |
"G"d3 "E7"B3 | "Am"cdc "D7"(B2 A) | "G"G6- | "G"G3 |]
